X:7916
T:The young may moon
C:anon.
O:Ireland
Z:Transcribed by Frank Nordberg - http://www.musicaviva.com
F:http://abc.musicaviva.com/tunes/ireland/the-young-may-moon.abc
M:6/8
L:1/8
K:F
"^Allegro"c|f2f f2c|d2c (cde)|f2f (gfg)|a2f (fga)|
b2b a2a|(ga)f He2c|(dc)B (AB)c|[1d2cc2:|[2d2e f2|]
W:
W:
W:  From Musica Viva - http://www.musicaviva.com
W:  the Internet center for free sheet music downloads.

